X:1
T:Title
L:1/8
Q:1/4=100
M:6/8
K:G
V:1 treble nm="Church Organ, Staff"
V:1
 G A2 G c2 | B A2 B G2 | d e2 ddc | BBA G F2 | G A2 G c2 | B B2 A A2 | B G2 F E2 | DEG A B2- | %8
w: By~C.~Simper * * *||||||||
 BBB- B/ z/ B_B- | B=Bd- d/ z/ A^G- | GAB- B/ z/ =GE- | EGA- A/ z/ EA- | ADD- D/ z/ GB- | %13
w: |||||
 Bed- d/ z/ cG- | G2 G- G/ z/ AB- | BdG- G/ z/ AB- | B2 B- B/ z/ ed- | dGF GAG- | G3 z3 |] %19
w: ||||||

